X:1
T:Méz, méz, méz
O:Magyar népdal
M:2/4
L:1/8
K:C
d2B2 | d4 | d2B2 | d4 | dedc | BABA | BABA | G2 G2 |
w: Méz, méz, méz, ter-mett méz, ter-mett méz-nek ál-dott-sá-ga, le-hul-lott vi-rá-ga.
dcBe | d4 |  dcBe | d4 | dcBA | BAB2 | BABA | G2 z2 |]
w: Ez az ál-dott bor, ki mind-den-nap forr, ha jót i-szol be-lő-le, a tor-kom-ra forr.

